Front-end/assets/images/icons/LOGO.svg

<svg width="205" height="60" fill="none" xmlns="http://www.w3.org/2000/svg"><path opacity=".8" fill="#FF5C00" d="M70 14H56v14h14z"/><g filter="url(#filter0_b_10:118)"><path fill="#fff" fill-opacity=".48" d="M70 28H56v14h14z"/></g><g filter="url(#filter1_b_10:118)"><path fill="#fff" fill-opacity=".11" d="M14 0H0v14h14z"/></g><g filter="url(#filter2_b_10:118)"><path fill="#fff" fill-opacity=".11" d="M98 28H84v14h14z"/></g><path opacity=".9" fill="#FF5C00" d="M56 14H42v14h14z"/><path opacity=".7" fill="#FF5C00" d="M56 28H42v14h14z"/><path opacity=".8" fill="#FF5C00" d="M42 14H28v14h14z"/><path fill="#FF5C00" d="M42 28H28v14h14zm14 14H42v14h14z"/><g filter="url(#filter3_b_10:118)"><path fill="#fff" fill-opacity=".48" d="M28 14H14v14h14z"/></g><g filter="url(#filter4_b_10:118)"><path fill="#fff" fill-opacity=".48" d="M84 14H70v14h14z"/></g><g filter="url(#filter5_b_10:118)"><path fill="#fff" fill-opacity=".22" d="M14 28H0v14h14z"/></g><path opacity=".4" fill="#FF5C00" d="M28 28H14v14h14z"/><path d="M74.404 39.344c3 0 5.304.72 6.912 2.16 1.608 1.416 2.412 3.564 2.412 6.444V59h-5.256v-2.412c-1.056 1.8-3.024 2.7-5.904 2.7-1.488 0-2.784-.252-3.888-.756-1.08-.504-1.908-1.2-2.484-2.088-.576-.888-.864-1.896-.864-3.024 0-1.8.672-3.216 2.016-4.248 1.368-1.032 3.468-1.548 6.3-1.548h4.464c0-1.224-.372-2.16-1.116-2.808-.744-.672-1.86-1.008-3.348-1.008a9.62 9.62 0 00-3.06.504c-.984.312-1.824.744-2.52 1.296l-2.016-3.924c1.056-.744 2.316-1.32 3.78-1.728a17.212 17.212 0 014.572-.612zm-.432 16.164c.96 0 1.812-.216 2.556-.648.744-.456 1.272-1.116 1.584-1.98V50.9H74.26c-2.304 0-3.456.756-3.456 2.268 0 .72.276 1.296.828 1.728.576.408 1.356.612 2.34.612zm14.839-15.876h5.616V59H88.81V39.632zm2.808-2.7c-1.032 0-1.872-.3-2.52-.9-.648-.6-.972-1.344-.972-2.232 0-.888.324-1.632.972-2.232.648-.6 1.488-.9 2.52-.9s1.872.288 2.52.864c.648.576.972 1.296.972 2.16 0 .936-.324 1.716-.972 2.34-.648.6-1.488.9-2.52.9z" fill="#FF5C00"/><path d="M121.606 39.344c2.4 0 4.332.72 5.796 2.16 1.488 1.44 2.232 3.576 2.232 6.408V59h-5.616V48.776c0-1.536-.336-2.676-1.008-3.42-.672-.768-1.644-1.152-2.916-1.152-1.416 0-2.544.444-3.384 1.332-.84.864-1.26 2.16-1.26 3.888V59h-5.616V39.632h5.364V41.9c.744-.816 1.668-1.44 2.772-1.872 1.104-.456 2.316-.684 3.636-.684zm32.631.288V59h-5.328v-2.304a7.643 7.643 0 01-2.664 1.944c-1.032.432-2.148.648-3.348.648-2.544 0-4.56-.732-6.048-2.196-1.488-1.464-2.232-3.636-2.232-6.516V39.632h5.616v10.116c0 3.12 1.308 4.68 3.924 4.68 1.344 0 2.424-.432 3.24-1.296.816-.888 1.224-2.196 1.224-3.924v-9.576h5.616zm24.931-7.344V59h-5.364v-2.232c-1.392 1.68-3.408 2.52-6.048 2.52-1.824 0-3.48-.408-4.968-1.224-1.464-.816-2.616-1.98-3.456-3.492-.84-1.512-1.26-3.264-1.26-5.256 0-1.992.42-3.744 1.26-5.256.84-1.512 1.992-2.676 3.456-3.492 1.488-.816 3.144-1.224 4.968-1.224 2.472 0 4.404.78 5.796 2.34v-9.396h5.616zm-10.44 22.392c1.416 0 2.592-.48 3.528-1.44.936-.984 1.404-2.292 1.404-3.924 0-1.632-.468-2.928-1.404-3.888-.936-.984-2.112-1.476-3.528-1.476-1.44 0-2.628.492-3.564 1.476-.936.96-1.404 2.256-1.404 3.888 0 1.632.468 2.94 1.404 3.924.936.96 2.124 1.44 3.564 1.44zm34.609-5.292c0 .072-.036.576-.108 1.512h-14.652c.264 1.2.888 2.148 1.872 2.844.984.696 2.208 1.044 3.672 1.044 1.008 0 1.896-.144 2.664-.432.792-.312 1.524-.792 2.196-1.44l2.988 3.24c-1.824 2.088-4.488 3.132-7.992 3.132-2.184 0-4.116-.42-5.796-1.26-1.68-.864-2.976-2.052-3.888-3.564-.912-1.512-1.368-3.228-1.368-5.148 0-1.896.444-3.6 1.332-5.112a9.451 9.451 0 013.708-3.564c1.584-.864 3.348-1.296 5.292-1.296 1.896 0 3.612.408 5.148 1.224a8.786 8.786 0 013.6 3.528c.888 1.512 1.332 3.276 1.332 5.292zm-10.044-5.796c-1.272 0-2.34.36-3.204 1.08-.864.72-1.392 1.704-1.584 2.952h9.54c-.192-1.224-.72-2.196-1.584-2.916-.864-.744-1.92-1.116-3.168-1.116z" fill="#000"/><defs><filter id="filter0_b_10:118" x="52" y="24" width="22" height="22" filterUnits="userSpaceOnUse" color-interpolation-filters="sRGB"><feFlood flood-opacity="0" result="BackgroundImageFix"/><feGaussianBlur in="BackgroundImage" stdDeviation="2"/><feComposite in2="SourceAlpha" operator="in" result="effect1_backgroundBlur_10:118"/><feBlend in="SourceGraphic" in2="effect1_backgroundBlur_10:118" result="shape"/></filter><filter id="filter1_b_10:118" x="-4" y="-4" width="22" height="22" filterUnits="userSpaceOnUse" color-interpolation-filters="sRGB"><feFlood flood-opacity="0" result="BackgroundImageFix"/><feGaussianBlur in="BackgroundImage" stdDeviation="2"/><feComposite in2="SourceAlpha" operator="in" result="effect1_backgroundBlur_10:118"/><feBlend in="SourceGraphic" in2="effect1_backgroundBlur_10:118" result="shape"/></filter><filter id="filter2_b_10:118" x="80" y="24" width="22" height="22" filterUnits="userSpaceOnUse" color-interpolation-filters="sRGB"><feFlood flood-opacity="0" result="BackgroundImageFix"/><feGaussianBlur in="BackgroundImage" stdDeviation="2"/><feComposite in2="SourceAlpha" operator="in" result="effect1_backgroundBlur_10:118"/><feBlend in="SourceGraphic" in2="effect1_backgroundBlur_10:118" result="shape"/></filter><filter id="filter3_b_10:118" x="10" y="10" width="22" height="22" filterUnits="userSpaceOnUse" color-interpolation-filters="sRGB"><feFlood flood-opacity="0" result="BackgroundImageFix"/><feGaussianBlur in="BackgroundImage" stdDeviation="2"/><feComposite in2="SourceAlpha" operator="in" result="effect1_backgroundBlur_10:118"/><feBlend in="SourceGraphic" in2="effect1_backgroundBlur_10:118" result="shape"/></filter><filter id="filter4_b_10:118" x="66" y="10" width="22" height="22" filterUnits="userSpaceOnUse" color-interpolation-filters="sRGB"><feFlood flood-opacity="0" result="BackgroundImageFix"/><feGaussianBlur in="BackgroundImage" stdDeviation="2"/><feComposite in2="SourceAlpha" operator="in" result="effect1_backgroundBlur_10:118"/><feBlend in="SourceGraphic" in2="effect1_backgroundBlur_10:118" result="shape"/></filter><filter id="filter5_b_10:118" x="-4" y="24" width="22" height="22" filterUnits="userSpaceOnUse" color-interpolation-filters="sRGB"><feFlood flood-opacity="0" result="BackgroundImageFix"/><feGaussianBlur in="BackgroundImage" stdDeviation="2"/><feComposite in2="SourceAlpha" operator="in" result="effect1_backgroundBlur_10:118"/><feBlend in="SourceGraphic" in2="effect1_backgroundBlur_10:118" result="shape"/></filter></defs></svg>

<svg width="205" height="60" viewBox="0 0 205 60" fill="none" xmlns="http://www.w3.org/2000/svg">
<rect opacity="0.8" width="14" height="14" transform="matrix(-1 -8.74228e-08 -8.74228e-08 1 70 14)" fill="#FF5C00"/>
<g filter="url(#filter0_b_10:118)">
<rect width="14" height="14" transform="matrix(-1 -8.74228e-08 -8.74228e-08 1 70 28)" fill="white" fill-opacity="0.48"/>
</g>
<g filter="url(#filter1_b_10:118)">
<rect width="14" height="14" transform="matrix(-1 -8.74228e-08 -8.74228e-08 1 14 0)" fill="white" fill-opacity="0.11"/>
</g>
<g filter="url(#filter2_b_10:118)">
<rect width="14" height="14" transform="matrix(-1 -8.74228e-08 -8.74228e-08 1 98 28)" fill="white" fill-opacity="0.11"/>
</g>
<rect opacity="0.9" width="14" height="14" transform="matrix(-1 -8.74228e-08 -8.74228e-08 1 56 14)" fill="#FF5C00"/>
<rect opacity="0.7" width="14" height="14" transform="matrix(-1 -8.74228e-08 -8.74228e-08 1 56 28)" fill="#FF5C00"/>
<rect opacity="0.8" width="14" height="14" transform="matrix(-1 -8.74228e-08 -8.74228e-08 1 42 14)" fill="#FF5C00"/>
<rect width="14" height="14" transform="matrix(-1 -8.74228e-08 -8.74228e-08 1 42 28)" fill="#FF5C00"/>
<rect width="14" height="14" transform="matrix(-1 -8.74228e-08 -8.74228e-08 1 56 41.9999)" fill="#FF5C00"/>
<g filter="url(#filter3_b_10:118)">
<rect width="14" height="14" transform="matrix(-1 -8.74228e-08 -8.74228e-08 1 28 14)" fill="white" fill-opacity="0.48"/>
</g>
<g filter="url(#filter4_b_10:118)">
<rect width="14" height="14" transform="matrix(-1 -8.74228e-08 -8.74228e-08 1 84 14)" fill="white" fill-opacity="0.48"/>
</g>
<g filter="url(#filter5_b_10:118)">
<rect width="14" height="14" transform="matrix(-1 -8.74228e-08 -8.74228e-08 1 14 28)" fill="white" fill-opacity="0.22"/>
</g>
<rect opacity="0.4" width="14" height="14" transform="matrix(-1 -8.74228e-08 -8.74228e-08 1 28 28)" fill="#FF5C00"/>
<path d="M74.404 39.344C77.404 39.344 79.708 40.064 81.316 41.504C82.924 42.92 83.728 45.068 83.728 47.948V59H78.472V56.588C77.416 58.388 75.448 59.288 72.568 59.288C71.08 59.288 69.784 59.036 68.68 58.532C67.6 58.028 66.772 57.332 66.196 56.444C65.62 55.556 65.332 54.548 65.332 53.42C65.332 51.62 66.004 50.204 67.348 49.172C68.716 48.14 70.816 47.624 73.648 47.624H78.112C78.112 46.4 77.74 45.464 76.996 44.816C76.252 44.144 75.136 43.808 73.648 43.808C72.616 43.808 71.596 43.976 70.588 44.312C69.604 44.624 68.764 45.056 68.068 45.608L66.052 41.684C67.108 40.94 68.368 40.364 69.832 39.956C71.32 39.548 72.844 39.344 74.404 39.344ZM73.972 55.508C74.932 55.508 75.784 55.292 76.528 54.86C77.272 54.404 77.8 53.744 78.112 52.88V50.9H74.26C71.956 50.9 70.804 51.656 70.804 53.168C70.804 53.888 71.08 54.464 71.632 54.896C72.208 55.304 72.988 55.508 73.972 55.508ZM88.8108 39.632H94.4268V59H88.8108V39.632ZM91.6188 36.932C90.5868 36.932 89.7468 36.632 89.0988 36.032C88.4508 35.432 88.1268 34.688 88.1268 33.8C88.1268 32.912 88.4508 32.168 89.0988 31.568C89.7468 30.968 90.5868 30.668 91.6188 30.668C92.6508 30.668 93.4908 30.956 94.1388 31.532C94.7868 32.108 95.1108 32.828 95.1108 33.692C95.1108 34.628 94.7868 35.408 94.1388 36.032C93.4908 36.632 92.6508 36.932 91.6188 36.932Z" fill="#FF5C00"/>
<path d="M121.606 39.344C124.006 39.344 125.938 40.064 127.402 41.504C128.89 42.944 129.634 45.08 129.634 47.912V59H124.018V48.776C124.018 47.24 123.682 46.1 123.01 45.356C122.338 44.588 121.366 44.204 120.094 44.204C118.678 44.204 117.55 44.648 116.71 45.536C115.87 46.4 115.45 47.696 115.45 49.424V59H109.834V39.632H115.198V41.9C115.942 41.084 116.866 40.46 117.97 40.028C119.074 39.572 120.286 39.344 121.606 39.344ZM154.237 39.632V59H148.909V56.696C148.165 57.536 147.277 58.184 146.245 58.64C145.213 59.072 144.097 59.288 142.897 59.288C140.353 59.288 138.337 58.556 136.849 57.092C135.361 55.628 134.617 53.456 134.617 50.576V39.632H140.233V49.748C140.233 52.868 141.541 54.428 144.157 54.428C145.501 54.428 146.581 53.996 147.397 53.132C148.213 52.244 148.621 50.936 148.621 49.208V39.632H154.237ZM179.168 32.288V59H173.804V56.768C172.412 58.448 170.396 59.288 167.756 59.288C165.932 59.288 164.276 58.88 162.788 58.064C161.324 57.248 160.172 56.084 159.332 54.572C158.492 53.06 158.072 51.308 158.072 49.316C158.072 47.324 158.492 45.572 159.332 44.06C160.172 42.548 161.324 41.384 162.788 40.568C164.276 39.752 165.932 39.344 167.756 39.344C170.228 39.344 172.16 40.124 173.552 41.684V32.288H179.168ZM168.728 54.68C170.144 54.68 171.32 54.2 172.256 53.24C173.192 52.256 173.66 50.948 173.66 49.316C173.66 47.684 173.192 46.388 172.256 45.428C171.32 44.444 170.144 43.952 168.728 43.952C167.288 43.952 166.1 44.444 165.164 45.428C164.228 46.388 163.76 47.684 163.76 49.316C163.76 50.948 164.228 52.256 165.164 53.24C166.1 54.2 167.288 54.68 168.728 54.68ZM203.337 49.388C203.337 49.46 203.301 49.964 203.229 50.9H188.577C188.841 52.1 189.465 53.048 190.449 53.744C191.433 54.44 192.657 54.788 194.121 54.788C195.129 54.788 196.017 54.644 196.785 54.356C197.577 54.044 198.309 53.564 198.981 52.916L201.969 56.156C200.145 58.244 197.481 59.288 193.977 59.288C191.793 59.288 189.861 58.868 188.181 58.028C186.501 57.164 185.205 55.976 184.293 54.464C183.381 52.952 182.925 51.236 182.925 49.316C182.925 47.42 183.369 45.716 184.257 44.204C185.169 42.668 186.405 41.48 187.965 40.64C189.549 39.776 191.313 39.344 193.257 39.344C195.153 39.344 196.869 39.752 198.405 40.568C199.941 41.384 201.141 42.56 202.005 44.096C202.893 45.608 203.337 47.372 203.337 49.388ZM193.293 43.592C192.021 43.592 190.953 43.952 190.089 44.672C189.225 45.392 188.697 46.376 188.505 47.624H198.045C197.853 46.4 197.325 45.428 196.461 44.708C195.597 43.964 194.541 43.592 193.293 43.592Z" fill="black"/>
<defs>
<filter id="filter0_b_10:118" x="52" y="24" width="22" height="22" filterUnits="userSpaceOnUse" color-interpolation-filters="sRGB">
<feFlood flood-opacity="0" result="BackgroundImageFix"/>
<feGaussianBlur in="BackgroundImage" stdDeviation="2"/>
<feComposite in2="SourceAlpha" operator="in" result="effect1_backgroundBlur_10:118"/>
<feBlend mode="normal" in="SourceGraphic" in2="effect1_backgroundBlur_10:118" result="shape"/>
</filter>
<filter id="filter1_b_10:118" x="-4" y="-4" width="22" height="22" filterUnits="userSpaceOnUse" color-interpolation-filters="sRGB">
<feFlood flood-opacity="0" result="BackgroundImageFix"/>
<feGaussianBlur in="BackgroundImage" stdDeviation="2"/>
<feComposite in2="SourceAlpha" operator="in" result="effect1_backgroundBlur_10:118"/>
<feBlend mode="normal" in="SourceGraphic" in2="effect1_backgroundBlur_10:118" result="shape"/>
</filter>
<filter id="filter2_b_10:118" x="80" y="24" width="22" height="22" filterUnits="userSpaceOnUse" color-interpolation-filters="sRGB">
<feFlood flood-opacity="0" result="BackgroundImageFix"/>
<feGaussianBlur in="BackgroundImage" stdDeviation="2"/>
<feComposite in2="SourceAlpha" operator="in" result="effect1_backgroundBlur_10:118"/>
<feBlend mode="normal" in="SourceGraphic" in2="effect1_backgroundBlur_10:118" result="shape"/>
</filter>
<filter id="filter3_b_10:118" x="10" y="10" width="22" height="22" filterUnits="userSpaceOnUse" color-interpolation-filters="sRGB">
<feFlood flood-opacity="0" result="BackgroundImageFix"/>
<feGaussianBlur in="BackgroundImage" stdDeviation="2"/>
<feComposite in2="SourceAlpha" operator="in" result="effect1_backgroundBlur_10:118"/>
<feBlend mode="normal" in="SourceGraphic" in2="effect1_backgroundBlur_10:118" result="shape"/>
</filter>
<filter id="filter4_b_10:118" x="66" y="10" width="22" height="22" filterUnits="userSpaceOnUse" color-interpolation-filters="sRGB">
<feFlood flood-opacity="0" result="BackgroundImageFix"/>
<feGaussianBlur in="BackgroundImage" stdDeviation="2"/>
<feComposite in2="SourceAlpha" operator="in" result="effect1_backgroundBlur_10:118"/>
<feBlend mode="normal" in="SourceGraphic" in2="effect1_backgroundBlur_10:118" result="shape"/>
</filter>
<filter id="filter5_b_10:118" x="-4" y="24" width="22" height="22" filterUnits="userSpaceOnUse" color-interpolation-filters="sRGB">
<feFlood flood-opacity="0" result="BackgroundImageFix"/>
<feGaussianBlur in="BackgroundImage" stdDeviation="2"/>
<feComposite in2="SourceAlpha" operator="in" result="effect1_backgroundBlur_10:118"/>
<feBlend mode="normal" in="SourceGraphic" in2="effect1_backgroundBlur_10:118" result="shape"/>
</filter>
</defs>
</svg>
